src/scalable/places-circle/folder-gdrive.svg

<svg width="64" height="64" version="1.1" viewBox="0 0 16.933 16.933" xmlns="http://www.w3.org/2000/svg" xmlns:xlink="http://www.w3.org/1999/xlink">
 <defs>
  <linearGradient id="a" x1="43.231" x2="48.179" y1="46.109" y2="51.287" gradientTransform="scale(.26458)" gradientUnits="userSpaceOnUse" xlink:href="#b"/>
  <linearGradient id="b">
   <stop offset="0"/>
   <stop stop-opacity="0" offset="1"/>
  </linearGradient>
  <linearGradient id="c" x1="42" x2="44" y1="51" y2="55" gradientUnits="userSpaceOnUse" xlink:href="#b"/>
 </defs>
 <circle cx="8.4665" cy="8.4665" r="7.4082" fill="#4379b9" style="paint-order:stroke fill markers"/>
 <path transform="scale(.26458)" d="m16.17 14a24 24 0 0 0-8.1699 18 24 24 0 0 0 24 24 24 24 0 0 0 24-24 24 24 0 0 0-8.1582-18h-31.672z" fill="#fff" style="paint-order:stroke fill markers"/>
 <path d="m8.466 4.2332c-0.29211 6.879e-4 -0.38134 0.27599-0.52916 0.52967l-0.30799 0.52812-5.5525 5.292e-4a7.1436 7.1436 0 0 0-0.75343 3.1749 7.1436 7.1436 0 0 0 7.1436 7.1436 7.1436 7.1436 0 0 0 7.1436-7.1436 7.1436 7.1436 0 0 0-1.3999-4.2332h-5.7432z" fill="#5294e2" style="paint-order:stroke markers fill"/>
 <path d="m15.61 8.4666-7.1437 7.1437a7.1437 7.1437 0 0 0 7.1437-7.1437z" fill="url(#a)" opacity=".1" style="paint-order:stroke markers fill"/>
 <path transform="scale(.26458)" d="m30 16c-1.3237 0-2.4299 1.0499-3 2l-1.1992 2h-19.061c-1.7922 3.7472-2.7282 7.8463-2.7402 12-6e-7 15.464 12.536 28 28 28 15.464 1e-6 28-12.536 28-28-0.01011-3.7983-0.79291-7.5548-2.3008-11.041-0.77563-1.7345-1.7759-3.5334-2.7617-4.959z" fill="#5294e2" style="paint-order:stroke fill markers"/>
 <path transform="scale(.26458)" d="m32 4a28 28 0 0 0-18.467 7h36.951a28 28 0 0 0-18.484-7z" opacity=".15" style="paint-order:stroke fill markers"/>
 <path transform="scale(.26458)" d="m57.312 43.891-27.693 15.99a28 28 0 0 0 2.3809 0.11914 28 28 0 0 0 25.312-16.109z" fill="url(#c)" opacity=".1" style="paint-order:stroke fill markers"/>
 <path class="ColorScheme-Text" d="m7.6878 7.4082 1.8442 3.4015h1.8449l-1.8449-3.4015zm-0.29559 0.30165-1.836 3.0353 0.85959 1.7628 1.788-3.209zm0.252 3.4778-0.93285 1.5122h3.7321l0.93349-1.5122z" fill="#fff"/>
</svg>

<svg width="64" height="64" viewBox="0 0 16.933 16.933" xmlns="http://www.w3.org/2000/svg" xmlns:xlink="http://www.w3.org/1999/xlink"><defs><linearGradient id="b" x1="43.231" x2="48.179" y1="46.109" y2="51.287" gradientTransform="scale(.26458)" gradientUnits="userSpaceOnUse" xlink:href="#a"/><linearGradient id="a"><stop offset="0"/><stop stop-opacity="0" offset="1"/></linearGradient><linearGradient id="c" x1="42" x2="44" y1="51" y2="55" gradientUnits="userSpaceOnUse" xlink:href="#a"/></defs><circle cx="8.466" cy="8.466" r="7.408" fill="#4379b9" style="paint-order:stroke fill markers"/><path transform="scale(.26458)" d="M16.17 14A24 24 0 0 0 8 32a24 24 0 0 0 24 24 24 24 0 0 0 24-24 24 24 0 0 0-8.158-18H16.17z" fill="#fff" style="paint-order:stroke fill markers"/><path d="M8.466 4.233c-.292 0-.381.276-.53.53l-.307.528H2.076a7.144 7.144 0 0 0-.753 3.175 7.144 7.144 0 0 0 7.144 7.144 7.144 7.144 0 0 0 7.143-7.144 7.144 7.144 0 0 0-1.4-4.233H8.467z" fill="#5294e2" style="paint-order:stroke markers fill"/><path d="M15.61 8.467 8.466 15.61a7.144 7.144 0 0 0 7.144-7.143z" fill="url(#b)" opacity=".1" style="paint-order:stroke markers fill"/><path transform="scale(.26458)" d="M30 16c-1.324 0-2.43 1.05-3 2l-1.2 2H6.74A28 28 0 0 0 4 32c0 15.464 12.536 28 28 28s28-12.536 28-28a28 28 0 0 0-2.301-11.041c-.776-1.734-1.776-3.533-2.762-4.959z" fill="#5294e2" style="paint-order:stroke fill markers"/><path transform="scale(.26458)" d="M32 4a28 28 0 0 0-18.467 7h36.951A28 28 0 0 0 32 4z" opacity=".15" style="paint-order:stroke fill markers"/><path transform="scale(.26458)" d="m57.312 43.891-27.693 15.99a28 28 0 0 0 2.38.12 28 28 0 0 0 25.313-16.11z" fill="url(#c)" opacity=".1" style="paint-order:stroke fill markers"/><path class="ColorScheme-Text" d="m7.688 7.408 1.844 3.402h1.845L9.532 7.408zm-.296.302-1.836 3.035.86 1.763 1.788-3.209zm.252 3.478L6.711 12.7h3.732l.934-1.512z" fill="#fff"/></svg>
